svg_schematique/SCH CV.svg

<?xml version="1.0" encoding="UTF-8"?>
<svg xmlns="http://www.w3.org/2000/svg" xmlns:xlink="http://www.w3.org/1999/xlink" width="128px" height="128px" viewBox="0 0 128 128" version="1.1">
<g id="surface1">
<rect y="0" x="0" height="128" width="128" id="rect842" style="fill:#ffffff;fill-opacity:0;stroke:none;stroke-width:9.14344" />
<path style="fill-rule:nonzero;fill:rgb(100%,100%,100%);fill-opacity:1;stroke-width:1;stroke-linecap:round;stroke-linejoin:round;stroke:rgb(0%,0%,0%);stroke-opacity:1;stroke-miterlimit:4;" d="M 26.5 48.490234 L 37.5 48.490234 L 37.5 63.509766 L 26.5 63.5 Z M 26.5 48.490234 " transform="matrix(2,0,0,2,0,0)"/>
<path style=" stroke:none;fill-rule:nonzero;fill:rgb(0%,0%,0%);fill-opacity:1;" d="M 64.304688 105.894531 L 66.589844 100.410156 C 66.699219 100.136719 66.882812 100 67.128906 100 C 67.433594 100 67.589844 100.210938 67.589844 100.632812 L 67.589844 109.480469 C 67.589844 109.828125 67.433594 110 67.125 110 C 66.789062 110 66.625 109.785156 66.625 109.351562 L 66.625 102.410156 L 64.734375 106.84375 C 64.617188 107.121094 64.46875 107.261719 64.285156 107.261719 C 64.082031 107.261719 63.921875 107.121094 63.800781 106.84375 L 61.820312 102.410156 L 61.820312 109.480469 C 61.820312 109.828125 61.660156 110 61.339844 110 C 61.015625 110 60.855469 109.804688 60.855469 109.414062 L 60.855469 100.640625 C 60.855469 100.214844 61.027344 100 61.371094 100 C 61.589844 100 61.753906 100.125 61.863281 100.375 Z M 64.304688 105.894531 "/>
<path style=" stroke:none;fill-rule:nonzero;fill:rgb(0%,0%,0%);fill-opacity:1;" d="M 57.035156 121.027344 L 57.035156 117.085938 C 57.035156 115.027344 58.125 114 60.308594 114 C 61.195312 114 61.910156 114.195312 62.449219 114.589844 C 63.070312 115.074219 63.378906 115.71875 63.378906 116.527344 C 63.378906 116.917969 63.222656 117.113281 62.90625 117.113281 C 62.683594 117.113281 62.519531 116.929688 62.421875 116.5625 C 62.359375 116.25 62.242188 115.949219 62.070312 115.667969 C 61.796875 115.175781 61.1875 114.929688 60.238281 114.929688 C 59.425781 114.929688 58.84375 115.132812 58.492188 115.542969 C 58.164062 115.910156 58 116.507812 58 117.339844 L 58 120.625 C 58 121.480469 58.171875 122.089844 58.519531 122.457031 C 58.890625 122.871094 59.484375 123.078125 60.296875 123.078125 C 61.519531 123.078125 62.230469 122.644531 62.421875 121.78125 C 62.492188 121.460938 62.53125 121.296875 62.535156 121.289062 C 62.605469 121.109375 62.730469 121.019531 62.90625 121.019531 C 63.222656 121.019531 63.378906 121.214844 63.378906 121.605469 C 63.378906 122.378906 63.054688 123.003906 62.402344 123.480469 C 61.875 123.828125 61.1875 124 60.335938 124 C 59.328125 124 58.535156 123.761719 57.964844 123.28125 C 57.34375 122.769531 57.035156 122.019531 57.035156 121.027344 Z M 57.035156 121.027344 "/>
<path style=" stroke:none;fill-rule:nonzero;fill:rgb(0%,0%,0%);fill-opacity:1;" d="M 68.011719 122.484375 L 70.308594 116.957031 C 70.40625 116.722656 70.5625 116.605469 70.773438 116.605469 C 71.082031 116.605469 71.238281 116.738281 71.238281 117.007812 C 71.238281 117.089844 71.203125 117.21875 71.132812 117.386719 L 68.578125 123.5 C 68.449219 123.800781 68.265625 123.949219 68.019531 123.949219 C 67.777344 123.949219 67.589844 123.800781 67.464844 123.5 L 64.886719 117.378906 C 64.824219 117.234375 64.796875 117.117188 64.796875 117.027344 C 64.796875 116.914062 64.835938 116.816406 64.921875 116.730469 C 65.011719 116.648438 65.113281 116.605469 65.230469 116.605469 C 65.449219 116.605469 65.609375 116.738281 65.71875 117 Z M 68.011719 122.484375 "/>
</g>
</svg>

<svg xmlns="http://www.w3.org/2000/svg" width="128" height="128"><path fill="none" d="M0 0h128v128H0z" style="fill:#fff;fill-opacity:0;stroke:none;stroke-width:9.14344"/><path d="M26.5 48.49h11v15.02l-11-.01Zm0 0" style="fill-rule:nonzero;fill:#fff;fill-opacity:1;stroke-width:1;stroke-linecap:round;stroke-linejoin:round;stroke:#000;stroke-opacity:1;stroke-miterlimit:4" transform="scale(2)"/><path d="m64.305 105.895 2.285-5.485c.11-.273.293-.41.539-.41.305 0 .46.21.46.633v8.847c0 .348-.155.52-.464.52-.336 0-.5-.215-.5-.648v-6.942l-1.89 4.434c-.118.277-.266.418-.45.418-.203 0-.363-.14-.484-.418l-1.98-4.434v7.07c0 .348-.16.52-.481.52-.324 0-.485-.195-.485-.586v-8.773c0-.426.172-.641.516-.641.219 0 .383.125.492.375ZM57.035 121.027v-3.941c0-2.059 1.09-3.086 3.274-3.086.886 0 1.601.195 2.14.59.621.484.93 1.129.93 1.937 0 .391-.156.586-.473.586-.222 0-.386-.183-.484-.55a2.74 2.74 0 0 0-.352-.895c-.273-.492-.883-.738-1.832-.738-.812 0-1.394.203-1.746.613-.328.367-.492.965-.492 1.797v3.285c0 .855.172 1.465.52 1.832.37.414.964.621 1.777.621 1.223 0 1.933-.433 2.125-1.297.07-.32.11-.484.113-.492.07-.18.195-.27.371-.27.317 0 .473.196.473.586 0 .774-.324 1.399-.977 1.875-.527.348-1.215.52-2.066.52-1.008 0-1.8-.238-2.371-.719-.621-.511-.93-1.261-.93-2.254ZM68.012 122.484l2.297-5.527c.097-.234.254-.352.464-.352.309 0 .465.133.465.403 0 .082-.035.21-.105.379l-2.555 6.113c-.129.3-.312.45-.558.45-.243 0-.43-.15-.555-.45l-2.578-6.121a.924.924 0 0 1-.09-.352c0-.113.039-.21.125-.297a.444.444 0 0 1 .308-.125c.22 0 .38.133.489.395Zm0 0" style="stroke:none;fill-rule:nonzero;fill:#000;fill-opacity:1"/></svg>
